Numix/16/status/indicator-keyboard-Hy-1.svg

<?xml version="1.0" encoding="UTF-8" standalone="no"?>
<svg
   xmlns:dc="http://purl.org/dc/elements/1.1/"
   xmlns:cc="http://creativecommons.org/ns#"
   xmlns:rdf="http://www.w3.org/1999/02/22-rdf-syntax-ns#"
   xmlns:svg="http://www.w3.org/2000/svg"
   xmlns="http://www.w3.org/2000/svg"
   xmlns:sodipodi="http://sodipodi.sourceforge.net/DTD/sodipodi-0.dtd"
   xmlns:inkscape="http://www.inkscape.org/namespaces/inkscape"
   viewBox="0 0 16 16"
   id="svg2"
   version="1.1"
   inkscape:version="0.91 r13725"
   sodipodi:docname="indicator-keyboard-Hy-1.svg">
  <metadata
     id="metadata14">
    <rdf:RDF>
      <cc:Work
         rdf:about="">
        <dc:format>image/svg+xml</dc:format>
        <dc:type
           rdf:resource="http://purl.org/dc/dcmitype/StillImage" />
      </cc:Work>
    </rdf:RDF>
  </metadata>
  <defs
     id="defs12" />
  <sodipodi:namedview
     pagecolor="#ffffff"
     bordercolor="#666666"
     borderopacity="1"
     objecttolerance="10"
     gridtolerance="10"
     guidetolerance="10"
     inkscape:pageopacity="0"
     inkscape:pageshadow="2"
     inkscape:window-width="640"
     inkscape:window-height="480"
     id="namedview10"
     showgrid="false"
     inkscape:zoom="14.75"
     inkscape:cx="8"
     inkscape:cy="8"
     inkscape:window-x="65"
     inkscape:window-y="24"
     inkscape:window-maximized="0"
     inkscape:current-layer="svg2" />
  <path
     style="fill:#ececec;fill-opacity:1"
     d="M 1.5996094 0 C 0.71320937 2.9605947e-16 0 0.71320937 0 1.5996094 L 0 14.400391 C 2.9605947e-16 15.286791 0.71320937 16 1.5996094 16 L 14.400391 16 C 15.286791 16 16 15.286791 16 14.400391 L 16 1.5996094 C 16 0.71320937 15.286791 0 14.400391 0 L 1.5996094 0 z M 2.125 4.859375 L 2.7382812 4.859375 L 2.7382812 7.5683594 L 6.1210938 7.5683594 L 6.1210938 4.859375 L 6.734375 4.859375 L 6.734375 11.095703 L 6.1210938 11.095703 L 6.1210938 8.0996094 L 2.7382812 8.0996094 L 2.7382812 11.095703 L 2.125 11.095703 L 2.125 4.859375 z M 7.71875 6.4433594 L 8.3398438 6.4433594 C 8.4058438 6.7313594 8.4897969 7.0429062 8.5917969 7.3789062 C 8.6937969 7.7089063 8.8075937 8.0502969 8.9335938 8.4042969 C 9.0655938 8.7582969 9.2092344 9.1221406 9.3652344 9.4941406 C 9.5212344 9.8661408 9.6891406 10.231797 9.8691406 10.591797 C 10.001141 10.219797 10.118703 9.8690627 10.220703 9.5390625 C 10.322703 9.2090625 10.416 8.8825937 10.5 8.5585938 C 10.59 8.2285937 10.673953 7.8927813 10.751953 7.5507812 C 10.835953 7.2087813 10.921719 6.8393594 11.011719 6.4433594 L 11.597656 6.4433594 C 11.405656 7.3133594 11.185453 8.1584688 10.939453 8.9804688 C 10.693453 9.8024689 10.426672 10.556234 10.138672 11.240234 C 10.024672 11.510234 9.9071094 11.741594 9.7871094 11.933594 C 9.6671094 12.131594 9.5328125 12.293922 9.3828125 12.419922 C 9.2388125 12.545922 9.0671406 12.637266 8.8691406 12.697266 C 8.6771406 12.757266 8.4495469 12.787109 8.1855469 12.787109 C 8.0355469 12.787109 7.8974844 12.770375 7.7714844 12.734375 C 7.6514844 12.698375 7.576875 12.670344 7.546875 12.652344 L 7.6640625 12.167969 C 7.6880625 12.185969 7.7533281 12.208281 7.8613281 12.238281 C 7.9753281 12.274281 8.0928906 12.292969 8.2128906 12.292969 C 8.3808906 12.292969 8.5301094 12.274281 8.6621094 12.238281 C 8.8001094 12.202281 8.92325 12.140781 9.03125 12.050781 C 9.13925 11.966781 9.2363125 11.854797 9.3203125 11.716797 C 9.4103125 11.578797 9.4980313 11.405312 9.5820312 11.195312 C 9.3840312 10.829313 9.1918594 10.448734 9.0058594 10.052734 C 8.8258594 9.6567342 8.6541875 9.2574688 8.4921875 8.8554688 C 8.3361875 8.4474687 8.1925469 8.042625 8.0605469 7.640625 C 7.9285469 7.232625 7.81475 6.8333594 7.71875 6.4433594 z M 13.605469 8.8417969 L 13.875 8.8417969 L 13.875 12.896484 L 13.494141 12.896484 L 13.494141 9.421875 C 13.451241 9.468675 13.394419 9.5157063 13.324219 9.5664062 C 13.257919 9.6171063 13.181503 9.66805 13.095703 9.71875 C 13.009903 9.76555 12.921725 9.812575 12.828125 9.859375 C 12.734525 9.902275 12.640475 9.9375437 12.546875 9.9648438 L 12.435547 9.671875 C 12.669547 9.5899751 12.877247 9.4880813 13.060547 9.3632812 C 13.243847 9.2345813 13.426069 9.0601969 13.605469 8.8417969 z "
     id="path4" />
</svg>

<svg xmlns="http://www.w3.org/2000/svg" viewBox="0 0 16 16">
 <path d="m 1.6 0 c -0.886 0 -1.6 0.713 -1.6 1.6 l 0 12.801 c 0 0.886 0.713 1.6 1.6 1.6 l 12.801 0 c 0.886 0 1.6 -0.713 1.6 -1.6 l 0 -12.801 c 0 -0.886 -0.713 -1.6 -1.6 -1.6 l -12.801 0 z m 0.525 4.859 l 0.613 0 l 0 2.709 l 3.383 0 l 0 -2.709 l 0.613 0 l 0 6.236 l -0.613 0 l 0 -2.996 l -3.383 0 l 0 2.996 l -0.613 0 l 0 -6.236 z m 5.594 1.584 l 0.621 0 c 0.066 0.288 0.15 0.6 0.252 0.936 c 0.102 0.33 0.216 0.671 0.342 1.025 c 0.132 0.354 0.276 0.718 0.432 1.09 c 0.156 0.372 0.324 0.738 0.504 1.098 c 0.132 -0.372 0.25 -0.723 0.352 -1.053 c 0.102 -0.33 0.195 -0.656 0.279 -0.98 c 0.09 -0.33 0.174 -0.666 0.252 -1.01 c 0.084 -0.342 0.17 -0.711 0.26 -1.107 l 0.586 0 c -0.192 0.87 -0.412 1.715 -0.658 2.537 c -0.246 0.822 -0.513 1.576 -0.801 2.26 c -0.114 0.27 -0.232 0.501 -0.352 0.693 c -0.12 0.198 -0.254 0.36 -0.404 0.486 c -0.144 0.126 -0.316 0.217 -0.514 0.277 c -0.192 0.06 -0.42 0.09 -0.684 0.09 c -0.15 0 -0.288 -0.017 -0.414 -0.053 c -0.12 -0.036 -0.195 -0.064 -0.225 -0.082 l 0.117 -0.484 c 0.024 0.018 0.089 0.04 0.197 0.07 c 0.114 0.036 0.232 0.055 0.352 0.055 c 0.168 0 0.317 -0.019 0.449 -0.055 c 0.138 -0.036 0.261 -0.098 0.369 -0.188 c 0.108 -0.084 0.205 -0.196 0.289 -0.334 c 0.09 -0.138 0.178 -0.311 0.262 -0.521 c -0.198 -0.366 -0.39 -0.747 -0.576 -1.143 c -0.18 -0.396 -0.352 -0.795 -0.514 -1.197 c -0.156 -0.408 -0.3 -0.813 -0.432 -1.215 c -0.132 -0.408 -0.246 -0.807 -0.342 -1.197 z m 5.887 2.398 l 0.27 0 l 0 4.055 l -0.381 0 l 0 -3.475 c -0.043 0.047 -0.1 0.094 -0.17 0.145 c -0.066 0.051 -0.143 0.102 -0.229 0.152 c -0.086 0.047 -0.174 0.094 -0.268 0.141 c -0.094 0.043 -0.188 0.078 -0.281 0.105 l -0.111 -0.293 c 0.234 -0.082 0.442 -0.184 0.625 -0.309 c 0.183 -0.129 0.366 -0.303 0.545 -0.521 z" style="fill:#ececec;fill-opacity:1"/>
</svg>
